svg/fluentui-system-icons/ic_fluent_star_checkmark_16_regular.svg

<svg width="16" height="16" viewBox="0 0 16 16" fill="none" xmlns="http://www.w3.org/2000/svg">
<path d="M8.80802 2.10228C8.47789 1.43336 7.52403 1.43336 7.1939 2.10228L5.67281 5.18433L2.27156 5.67856C1.53336 5.78583 1.23861 6.693 1.77277 7.21369L4.23394 9.61273L3.65294 13.0002C3.52684 13.7355 4.29853 14.2961 4.95879 13.949L5.86977 13.4701C5.69022 13.1907 5.53527 12.894 5.40797 12.5831L4.6728 12.9696L5.01845 10.9543C5.00623 10.8046 5 10.6533 5 10.5005C5 10.0507 5.05401 9.61342 5.15589 9.19493C5.11059 9.09856 5.04796 9.00973 4.9696 8.93334L2.61588 6.63903L5.86864 6.16638C6.16178 6.12378 6.41519 5.93967 6.54628 5.67404L8.00096 2.72654L9.19954 5.15514C9.53579 5.07362 9.88411 5.023 10.2413 5.00647L8.80802 2.10228ZM15 10.5C15 12.9853 12.9853 15 10.5 15C8.01472 15 6 12.9853 6 10.5C6 8.01472 8.01472 6 10.5 6C12.9853 6 15 8.01472 15 10.5ZM12.8536 8.64645C12.6583 8.45118 12.3417 8.45118 12.1464 8.64645L9.5 11.2929L8.85355 10.6464C8.65829 10.4512 8.34171 10.4512 8.14645 10.6464C7.95118 10.8417 7.95118 11.1583 8.14645 11.3536L9.14645 12.3536C9.34171 12.5488 9.65829 12.5488 9.85355 12.3536L12.8536 9.35355C13.0488 9.15829 13.0488 8.84171 12.8536 8.64645Z" fill="#212121"/>
</svg>

<svg xmlns="http://www.w3.org/2000/svg" width="16" height="16"><path d="M8.808 2.102a.9.9 0 0 0-1.614 0L5.673 5.184l-3.401.495a.9.9 0 0 0-.5 1.535l2.462 2.399L3.653 13a.9.9 0 0 0 1.306.949l.91-.479a5.486 5.486 0 0 1-.461-.887l-.735.387.345-2.016a5.576 5.576 0 0 1 .138-1.76.9.9 0 0 0-.186-.26L2.616 6.638l3.253-.473a.9.9 0 0 0 .677-.492l1.455-2.947L9.2 5.155a5.497 5.497 0 0 1 1.041-.149L8.808 2.102ZM15 10.5a4.5 4.5 0 1 1-9 0 4.5 4.5 0 0 1 9 0Zm-2.146-1.854a.5.5 0 0 0-.708 0L9.5 11.293l-.646-.647a.5.5 0 0 0-.708.708l1 1a.5.5 0 0 0 .708 0l3-3a.5.5 0 0 0 0-.708Z"/></svg>
